!!!COM: Scriabin, Alexander
!!!OTL@@FR: Prélude
!!!OTL@@EN: Prelude
!!!OPR@@FR: 4 Morceaux
!!!OPR@@EN: 4 Pieces
!!!OPS: 51
!!!ONM: 2
!!!ODT: 1906
!!!AGN: Prelude
**kern	**kern	**dynam
*staff2	*staff1	*staff1/2
*Ipiano	*Ipiano	*
*clefF4	*clefG2	*
*k[]	*k[]	*
*a:	*a:	*
*M6/8	*M6/8	*
*	*^	*
[4AA [4F	8eL	[4c	.
.	8aJ	.	.
=1	=1	=1	=1
4AA] 4F]	8cL 8e	8c]	.
.	8B 8d#X	8rc	.
[8EE [8C	8FJ 8A	8rc	.
8EE] 8C] 8F 8A 8c 8e	8f 8a 8cc	8rc	.
[4AA [4F	8eL	[4c	.
.	8ccJ	.	.
=2	=2	=2	=2
4AA] 4F]	8cL 8e	8c]	.
.	8B 8d#X	8rc	.
[8EE [8C	8FJ 8A	8rc	.
8EE] 8C] 8F 8A 8c 8e	8f 8a 8cc 8ee	8rc	.
4AA 4F	8cL 8e	4rc	.
.	8ccJ	.	.
*	*v	*v	*
=3	=3	=3
8D#X 8c	8fL 8a	.
4AA 4F	8c 8e	.
.	8ccJ	.
8D# 8c	8fL 8a	.
4AA 4F	8c 8e	.
.	8ccJ	.
=4	=4	=4
*^	*	*
4c	[4.E-X	[4.f [4.a	.
[8c-X	.	.	.
8c-]	8E-]	8fL] 8a]	.
4B-X	4D	8f 8a	.
.	.	8ffJ	.
=5	=5	=5	=5
*	*	*^	*
2.f	2.G#X	4ee	2.b-X	.
.	.	[8dd	.	.
.	.	8ddL]	.	.
.	.	8ee	.	.
.	.	8ddJ	.	.
=6	=6	=6	=6	=6
[4.f	[4.A	8ddL	[4.a	.
.	.	8dd-X	.	.
.	.	8ccJ	.	.
8fL]	8A]	8aaL	8a]	.
8c	4A	8f 8a	8rc	.
8AJ	.	8ccJ	8rc	.
=7	=7	=7	=7	=7
4.B	4.D#X	8bL	4.f#X	.
.	.	8a#X	.	.
.	.	[8anJ	.	.
4c	4.A	8aL]	4.fn	.
.	.	8a	.	.
8A	.	8ccJ	.	.
=8	=8	=8	=8	=8
[4.B	[4.D#X	[4.b	[4.f#X	.
8B]	8D#]	8f#L 8b]	8f#]	.
[4c	[4E	8g 8b	8rc	.
.	.	8eeJ	8rc	.
*	*	*v	*v	*
=9	=9	=9	=9
4c]	4E]	8gL 8b	.
.	.	8f#X 8a#X	.
[8BB [8G	8rEE	8cJ 8e	.
8BB] 8G] 8c 8e 8g 8b	4.rEE	8cc 8ee 8gg	.
[4E [4c	.	8gL 8b	.
.	.	8ggJ	.
*v	*v	*	*
=10	=10	=10
4E] 4c]	8gL 8b	.
.	8f#X 8a#X	.
[8BB [8G	8cJ 8e	.
8BB] 8G] 8c 8e 8g 8b	8cc 8ee 8gg 8bb	.
4E 4c	8gL 8b	.
.	8ggJ	.
=11	=11	=11
8A#X 8g	8ccL 8ee	.
4E 4c	8g 8b	.
.	8ggJ	.
8A# 8g	8ccL 8ee	.
4E 4c	8g 8b	.
.	8gJ	.
=12	=12	=12
*^	*	*
4G	[4.BB-X	[4.c [4.e	.
[8G-X	.	.	.
8G-]	8BB-]	8cL] 8e]	.
4F	4AA	8c 8e	.
.	.	8ccJ	.
=13	=13	=13	=13
*	*	*^	*
2.c	2.D#X	4bn	2.f	.
.	.	[8a	.	.
.	.	8aL]	.	.
.	.	8b	.	.
.	.	8aJ	.	.
=14	=14	=14	=14	=14
[4.c	[4.E	8aL	[4.e	.
.	.	8a-X	.	.
.	.	8gJ	.	.
16c]	16E]	16eeKL	16e]	.
16rc	16rEE	16r	16rc	.
4E-X	4GG	8B-X 8dn	8rc	.
.	.	8b-XJ	8rc	.
=15	=15	=15	=15	=15
2.B-X	2.C#X	4an	2.e-X	.
.	.	[8g	.	.
.	.	8gL]	.	.
.	.	8a	.	.
.	.	8gJ	.	.
=16	=16	=16	=16	=16
[4.B-X	[4.D	8gL	[4.d	.
.	.	8g-X	.	.
.	.	8fJ	.	.
8B-]	8D]	8ddL	8d]	.
4BB-X	4DD	8A	4F	.
.	.	8fJ	.	.
=17	=17	=17	=17	=17
4BB-X	4.EE-X	4d	4.G	.
8AA	.	8c#X	.	.
4.BB-	4.DD	8raa	4.F	.
.	.	8AL	.	.
.	.	8fJ	.	.
=18	=18	=18	=18	=18
8AAL	4.EE-X	16%3d	8F#XL	.
8BB-X	.	.	8G	.
.	.	16%3c#X	.	.
8AAJ	.	.	8G-XJ	.
4.BB-	4.DD	8raa	4.Fn	.
.	.	8AL	.	.
.	.	8fJ	.	.
*	*	*clefF4	*	*
=19	=19	=19	=19	=19
4BBn	4.DD#X	8dnL	4.F 4.A	.
.	.	8d-X	.	.
8C	.	[8cJ	.	.
4.Dn	4.EE	8cL]	4.E 4.G#X	.
.	.	8B	.	.
.	.	8B-XJ	.	.
=20	=20	=20	=20	=20
4C	4AA	[4.A	[4.F	.
[8C-X	[8EE-X	.	.	.
8C-]	8EE-]	8A]	8F]	.
4BB-X	4DD	8FL	4A	.
.	.	8fJ	.	.
=21	=21	=21	=21	=21
4BBn	4.DD#X	8dnL	4.F 4.A	.
.	.	8d-X	.	.
8C	.	[8cJ	.	.
4.Dn	4.EE	8cL]	4.E 4.G#X	.
.	.	8B	.	.
.	.	8B-XJ	.	.
*v	*v	*	*	*
*	*v	*v	*
=22	=22	=22
8AA 8C	[8F [8A	.
[4DD#X [4BB	4F_ 4A_ [4f	.
4.DD#] 4.BB]	4.F] 4.A] 4.f]	.
*	*clefG2	*
=23	=23	=23
8AA [8F	[8c 8e	.
[4DD#X [4C 4F_	4c_ [4f [4a	.
4.DD#] 4.C] 4.F]	4.c] 4.f] 4.a]	.
=24	=24	=24
[8F	[8c 8e	.
[4DD#X [4C 4F_	4c_ [4f [4a [4cc	.
4.DD#_ 4.C_ 4.F_	4.c_ 4.f_ 4.a_ 4.cc_	.
=25	=25	=25
*	*^	*
4.DD#] 4.C] 4.F]	4.c] 4.f] 4.a] 4.cc]	4.rc	.
8r	8raa	8rc	.
[4EE [4AA [4F	8eL	[4c	.
.	8aJ	.	.
=26	=26	=26	=26
4EE] 4AA] 4F]	8cL 8e	8c]	.
.	8B 8d#X	8rc	.
[8AAA [8FF [8C	8FJ 8A	8rc	.
8AAA] 8FF] 8C] 8F 8A 8c 8e	8f 8a 8cc	8rc	.
[4EE [4AA [4F	8eL	[4c	.
.	8ccJ	.	.
=27	=27	=27	=27
4EE] 4AA] 4F]	8cL 8e	8c]	.
.	8B 8d#X	8rc	.
[8AAA [8FF [8C	8FJ 8A	8rc	.
8AAA] 8FF] 8C] 8F 8A 8c 8e	8f 8a 8cc 8ee	8rc	.
4AA 4F	8cL 8e	4rc	.
.	8ccJ	.	.
*	*v	*v	*
=28	=28	=28
8D#X 8c	8fL 8a	.
4AA 4F	8c 8e	.
.	8ccJ	.
8D# 8c	8fL 8a	.
4AA 4F	8c 8e	.
.	8ccJ	.
=29	=29	=29
4r	4r	.
8r	8r	.
4.D#X 4.c	4.f 4.a	.
=30	=30	=30
2.AAA 2.AA 2.E	2.c 2.a 2.ee	.
==	==	==
*-	*-	*-
!!!system-decoration: {(*)}
!!!ENC: Bryan Jacob Bell
!!!END: November 2021 to April 2022
!!!PED: Günter Philipp
!!!PTL: Ausgewählte Klavierwerke (Edition Peters)
